!!!OTL: ES WAR EIN JAEGER DER BLIES INS HORN
!!!ARE: Europa, Mitteleuropa, Deutschland, Siebengebirge
!!!SCT: E0019F
!!!YEM: Copyright 1995, estate of Helmut Schaffrath.
**kern
*ICvox
*Ivox
*M6/8
*k[b-e-]
*B-:
{8f
=1
4b-
8b-
8b-
8b-
8b-
=2
4cc
8cc
4.cc}
=3
{8b-
8cc
8dd
4ee-
8dd
=4
4cc
4.r}
{8f
=5
4cc
8cc
8cc
8dd
8ee-
=6
8dd
8cc
8dd
4.b-}
=7
{8b-
8cc
8dd
8b-
8cc
8dd
=8
4cc
8f
4.f}
=9
{8dd
8dd
8dd
4cc
8cc
=10
4b-
4.r}
==
!!!AGN: Sage, Maerchen -, Zauber - Lied, Ballade ?
!!!ONB: ESAC (Essen Associative Code) Database: ERK1
!!!AMT: compound duple
!!!AIN: vox
!!!EED: Helmut Schaffrath
!!!EEV: 1.0
*-
